clock-in.svg

<svg fill="currentColor" viewBox="0 0 24 24"><path d="M2.21.79.79 2.21l4.01 4L3 8h5V3L6.21 4.8M12 8c-3.86 0-7 3.13-7 7a7 7 0 0 0 7 7c3.86 0 7-3.13 7-7a7 7 0 0 0-7-7m0 2.15c2.67 0 4.85 2.17 4.85 4.85A4.85 4.85 0 0 1 12 19.85c-2.68 0-4.85-2.17-4.85-4.85A4.85 4.85 0 0 1 12 10.15M11 12v3.69l3.19 1.84.75-1.3-2.44-1.41V12"/></svg>

<svg  viewBox="0 0 24 24" fill="currentColor"><path  d="M2.21,0.79L0.79,2.21L4.8,6.21L3,8H8V3L6.21,4.8M12,8C8.14,8 5,11.13 5,15A7,7 0 0,0 12,22C15.86,22 19,18.87 19,15A7,7 0 0,0 12,8M12,10.15C14.67,10.15 16.85,12.32 16.85,15A4.85,4.85 0 0,1 12,19.85C9.32,19.85 7.15,17.68 7.15,15A4.85,4.85 0 0,1 12,10.15M11,12V15.69L14.19,17.53L14.94,16.23L12.5,14.82V12"/></svg>
